packages/web-icons/svgs/logo_ridibooks_3.svg

<svg viewBox="0 0 119 49" xmlns="http://www.w3.org/2000/svg" class="ridi_icon"><path d="M22.9 17.1c0 2.3-.4 3.9-1.3 4.9-.9 1.1-2.5 1.6-4.8 1.6h-4.3V10.4h4.3c2.3 0 3.8.5 4.8 1.5.9 1.1 1.3 2.7 1.3 5.2m12.6 0c0-6.3-1.5-10.8-4.3-13.3C28.3 1.3 23.5 0 17 0H1.8C.6 0 .2.4.2 1.6v44.9c0 1.1.4 1.6 1.6 1.6H11c1.1 0 1.6-.4 1.6-1.6V33.3H16l.2.3 6.2 12.8c.5 1 1.3 1.5 2.6 1.5h9.4c.8 0 .9-.3 1-.4.1-.3.1-.8-.2-1.3L27.7 32l-.3-.5.5-.2.3-.1c4.8-2.4 7.3-7.1 7.3-14.1m19.7 29.3V1.6c0-1.1-.4-1.6-1.6-1.6h-9.3c-1.1 0-1.6.4-1.6 1.6v44.9c0 1.1.4 1.6 1.6 1.6h9.3c1.2-.1 1.6-.5 1.6-1.7M86.4 24c0 5.1-.6 8.5-1.7 10.3-1.2 1.9-3.4 2.9-6.4 2.9h-2.6V10.7h2.5c3 0 5.2 1 6.4 2.9 1.2 1.9 1.8 5.3 1.8 10.4m7.8 18.6C97.4 39 99 32.8 99 24S97.4 9 94.1 5.4C90.9 1.8 85.7 0 78.5 0H64.8c-1.1 0-1.6.4-1.6 1.6v44.9c0 1.1.4 1.6 1.6 1.6h13.8c7.2-.1 12.4-1.9 15.6-5.5m24.6 3.8V1.6c0-1.1-.4-1.6-1.6-1.6h-9.3c-1.1 0-1.6.4-1.6 1.6v44.9c0 1.1.4 1.6 1.6 1.6h9.3c1.2-.1 1.6-.5 1.6-1.7"/></svg>

<?xml version="1.0" encoding="UTF-8"?>
<svg width="119px" height="49px" viewBox="0 0 119 49" version="1.1" xmlns="http://www.w3.org/2000/svg">
  <!-- Generator: Sketch 41.2 (35397) - http://www.bohemiancoding.com/sketch -->
  <title>logo_ridibooks_3</title>
  <desc>Created with Sketch.</desc>
  <defs></defs>
  <g id="Page-1" stroke="none" stroke-width="1" fill="none" fill-rule="evenodd">
    <g id="logo_ridibooks_3" fill="#1F8EE6">
      <g id="Layer_1">
        <path d="M22.9,17.1 C22.9,19.4 22.5,21 21.6,22 C20.7,23.1 19.1,23.6 16.8,23.6 L13.1,23.6 L12.5,23.6 L12.5,23 L12.5,11 L12.5,10.4 L13.1,10.4 L16.8,10.4 C19.1,10.4 20.6,10.9 21.6,11.9 C22.5,13 22.9,14.6 22.9,17.1 M35.5,17.1 C35.5,10.8 34,6.3 31.2,3.8 C28.3,1.3 23.5,0 17,0 L1.8,0 C0.6,0 0.2,0.4 0.2,1.6 L0.2,46.5 C0.2,47.6 0.6,48.1 1.8,48.1 L11,48.1 C12.1,48.1 12.6,47.7 12.6,46.5 L12.6,33.9 L12.6,33.3 L13.2,33.3 L15.8,33.3 L16,33.3 L16.2,33.6 L22.4,46.4 C22.9,47.4 23.7,47.9 25,47.9 L34.4,47.9 C35.2,47.9 35.3,47.6 35.4,47.5 C35.5,47.2 35.5,46.7 35.2,46.2 L27.7,32 L27.4,31.5 L27.9,31.3 L28.2,31.2 C33,28.8 35.5,24.1 35.5,17.1 M55.2,46.4 L55.2,1.6 C55.2,0.5 54.8,0 53.6,0 L44.3,0 C43.2,0 42.7,0.4 42.7,1.6 L42.7,46.5 C42.7,47.6 43.1,48.1 44.3,48.1 L53.6,48.1 C54.8,48 55.2,47.6 55.2,46.4 M86.4,24 C86.4,29.1 85.8,32.5 84.7,34.3 C83.5,36.2 81.3,37.2 78.3,37.2 L76.3,37.2 L75.7,37.2 L75.7,36.6 L75.7,11.3 L75.7,10.7 L76.3,10.7 L78.2,10.7 C81.2,10.7 83.4,11.7 84.6,13.6 C85.8,15.5 86.4,18.9 86.4,24 M94.2,42.6 C97.4,39 99,32.8 99,24 C99,15.2 97.4,9 94.1,5.4 C90.9,1.8 85.7,0 78.5,0 L64.8,0 C63.7,0 63.2,0.4 63.2,1.6 L63.2,46.5 C63.2,47.6 63.6,48.1 64.8,48.1 L78.6,48.1 C85.8,48 91,46.2 94.2,42.6 M118.8,46.4 L118.8,1.6 C118.8,0.5 118.4,0 117.2,0 L107.9,0 C106.8,0 106.3,0.4 106.3,1.6 L106.3,46.5 C106.3,47.6 106.7,48.1 107.9,48.1 L117.2,48.1 C118.4,48 118.8,47.6 118.8,46.4" id="Shape"></path>
      </g>
    </g>
  </g>
</svg>
